!!!COM: Anon.
!!!OTL: Pater Noster Commiserans
!!!SCA: Folio 278'-280'
!!!YOR: from 'Thirty-Five Conductus for Two and Three Voices', pp.70-80
!!!YOR: edited by Janet Knapp, Collegium Musicum No. 6, Yale University (1965)
!!!YOR: from the School of Notre Dame; circa 1170-1240
!!!YOO: Yale University
!!!YOY: 1965
**kern	**kern
*M6/8	*M6/8
=1	=1
4.G	4.d
4.r	4e
.	8f
=2	=2
4.G	4.g
4.A	4.r
=3	=3
4.G	4d
.	8e
4.r	4d
.	8c
=4	=4
4.G	4d
.	8e
4.r	4d
.	8c
=5	=5
4.G	4.d
4.A	4.r
=6	=6
4.F	4.f
4.r	4e
.	8d
=7	=7
4G	4.d
8A	.
4B-	4.r
8A	.
=8	=8
4.G	8d
.	8c
.	8B-
4.A	4.A
=9	=9
4.F	8c
.	8B-
.	8A
4.r	4.G
=10	=10
8d	4.G
8c	.
8B-	.
4.A	4A
.	8G
=11	=11
8c	4.F
8B-	.
8A	.
4.G	4.r
=12	=12
4G	4.d
8A	.
4B-	4.r
8A	.
=13	=13
4.F	8c
.	8B-
.	8A
4.r	4.G
=14	=14
4.G	4.G
4.F	4.A
=15	=15
4.G	4.G
4.r	4G
.	8A
=16	=16
4F	4.c
8G	.
4B-	4d
8G	8e
=17	=17
4.A	16d
.	16c
.	8B-
.	8A
4.F	4.G
=18	=18
4.G	4.G
4.A	4.F
=19	=19
4.G	4.G
4.r	4.r
=20	=20
4.B-	4.f
4.c	4.e
=21	=21
4.d	8d
.	8c
.	8B-
4.r	4.A
=22	=22
4d	4.G
8e	.
4d	4.r
8c	.
=23	=23
4.B-	4B-
.	8c
4.r	4B-
.	8A
=24	=24
4c	4.G
8d	.
4c	4.r
8B-	.
=25	=25
4.A	4A
.	8B-
4.r	4A
.	8G
=26	=26
4B-	4.F
8c	.
4B-	4.r
8A	.
=27	=27
4.G	4.G
4.r	4.G
=28	=28
4B-	4.F
8A	.
4B-	4.G
8G	.
=29	=29
4.F	8B-
.	8A
.	8G
4.c	4.F
=30	=30
4.F	4.c
4F	4c
8G	8B-
=31	=31
4.A	4.A
4.G	4.B-
=32	=32
4B-	4A
8A	8G
4.B-	4.G
=33	=33
4.c	4.F
4c	4.r
8d	.
=34	=34
4.F	4.c
4.G	4d
.	8c
=35	=35
4B-	4B-
8A	8A
4.B-	4.G
=36	=36
4.c	4.F
4.B-	4.G
=37	=37
4.A	4A
.	8B-
4.G	4.c
=38	=38
4.A	4.A
4.r	4.r
=39	=39
4.B-	4.B-
4.c	4.A
=40	=40
4.d	4.G
4d	4G
8c	8A
=41	=41
4B-	4B-
8A	8c
4G	4.d
8A	.
=42	=42
4.B-	8f
.	8e
.	8d
4B-	4.c
8A	.
=43	=43
4.G	4.B-
4.F	4.A
=44	=44
4.G	4.G
4.r	4.r
=45	=45
4.D	4.A
4.F	4B-
.	8A
=46	=46
4.G	4.G
4.r	4A
.	8B-
=47	=47
4.A	4.A
4.r	4.G
=48	=48
4.B-	4.F
4.r	4.G
=49	=49
4A	4.A
8F	.
4.G	4.B-
=50	=50
4.A	4.A
4.c	4.G
=51	=51
4B-	4B-
8A	8A
4.G	4.B-
=52	=52
4.F	4.c
4.r	4.r
=53	=53
4.B-	4.B-
4c	4A
8d	8G
=54	=54
4.c	4.F
4c	4.r
8d	.
=55	=55
4.F	4.c
4.G	4.B-
=56	=56
4.A	4A
.	8G
4.r	4.A
=57	=57
4.B-	4.F
4.r	4.r
=58	=58
4A	4.A
8G	.
4.A	4.B-
=59	=59
4.G	8c
.	8B-
.	8A
4.r	4.G
=60	=60
2.F	2.A
=61	=61
4.G	4.G
4.r	4.r
=62	=62
4.d	4.G
4.f	4.B-
=63	=63
4f	4B-
8e	8A
4.d	4.B-
=64	=64
4.c	4.c
8d	8B-
8d	8A
8c	8G
=65	=65
4.c	4.F
4.B-	4.G
=66	=66
4.A	4.A
4.r	4.r
=67	=67
4B-	4B-
8c	8A
4d	4G
8c	8A
=68	=68
4.A	4.c
4.A	4.c
=69	=69
4.G	4.d
4.r	4.r
=70	=70
4.F	8c
.	8c
.	8d
4.B-	4.B-
=71	=71
4c	4A
8d	8G
4.c	4.F
=72	=72
4.B-	4.B-
4B-	4B-
8A	8c
=73	=73
4.G	4.d
4.r	4.r
=74	=74
4.d	4.B-
4.B-	4.d
=75	=75
4c	4.c
8e-	.
4d	4.d
8c	.
=76	=76
4.A	4.c
4.A	4.c
=77	=77
4.G	4.d
4.r	4.r
=78	=78
4A	4d
8c	8f
4B-	4e-
8A	8d
=79	=79
4.G	4.c
4.A	4.B-
=80	=80
2.F	2.A
=81	=81
4.G	4.G
4.r	4.r
=82	=82
4.A	4e
.	8d
4.c	4.c
=83	=83
4.B-	4.f
4.r	4e
.	8d
=84	=84
4d	4.d
8c	.
4d	4.r
8c	.
=85	=85
4B-	4.d
8A	.
4.G	4.r
=86	=86
4A	4.c
8c	.
4B-	4.r
8A	.
=87	=87
4.G	4.B-
4.G	4.B-
=88	=88
4.F	4.c
4.r	4.r
=89	=89
4.B-	4.B-
4c	4A
8d	8G
=90	=90
4.c	4.F
4.B-	4.G
=91	=91
4.A	4.A
4.r	4.r
=92	=92
4.B-	4.G
4c	4.F
8d	.
=93	=93
4.F	4.c
4.G	4.B-
=94	=94
4.A	4.A
4A	4A
8G	8G
=95	=95
4B-	4.G
8G	.
4.A	4.F
=96	=96
4.G	4.G
4.r	4.r
=97	=97
4.B-	4.f
4.c	4.e
=98	=98
4.d	8d
.	8c
.	8B-
4.r	4.A
=99	=99
4d	4.G
8e	.
4d	4.r
8c	.
=100	=100
4.d	4.G
4.c	4A
.	8B-
=101	=101
4.r	4.c
4.c	4.r
=102	=102
4.r	4.c
4c	4.r
8d	.
=103	=103
4c	4.c
8B-	.
8A	4c
8A	.
8F	8c
=104	=104
4.G	4.d
4.r	4.r
=105	=105
4.F	4.f
4.G	4e
.	8d
=106	=106
2.A	4.c
.	4c
.	8d
=107	=107
4.B-	4.B-
4B-	4B-
8A	8c
=108	=108
4.G	4.d
4.r	4.r
=109	=109
4.d	4.B-
4.r	4A
.	8G
=110	=110
4.c	4.G
4.r	4.r
=111	=111
4e-	4.B-
8d	.
4c	4.A
8d	.
=112	=112
4.B-	4.B-
4.c	4.A
=113	=113
4.B-	4.G
4.A	4.G
=114	=114
4.B-	4.F
4.r	4.r
=115	=115
4.d	4.G
4.d	4.G
=116	=116
4.G	4.d
4.r	4.r
=117	=117
4e-	4.B-
8d	.
4c	4.A
8d	.
=118	=118
4.B-	4.B-
4.c	4.A
=119	=119
4.B-	4.B-
4A	4c
8G	8d
=120	=120
4.G	4.d
4.r	4.r
=121	=121
4.c	4.F
4.c	4.F
=122	=122
4.F	4.c
4.r	4.r
=123	=123
4B-	4d
8A	8e
4B-	4f
8c	8d
=124	=124
4.A	4.e
4.B-	4.d
=125	=125
4.A	4.c
4.A	4.c
=126	=126
4.G	4.d
4.r	4d
.	8e
=127	=127
[2.F	16f
.	16e
.	16d
.	16c
.	16B-
.	16A
.	4.G
=128	=128
4.F]	4.A
[4.G	[4.G
=129	=129
4.G]	4.G]
4.r	4.r
!! New Section
=130	=130
4.B-	4.e-
4.c	4.d
=131	=131
4.c	8c
.	8B-
.	8A
4.r	4.G
=132	=132
4d	4.G
8c	.
4d	4.r
8B-	.
=133	=133
4.c	4.F
4.r	4F
.	8G
=134	=134
4.B-	4.B-
4A	4.r
8G	.
=135	=135
4.G	4.d
4.r	4c
.	8B-
=136	=136
4.B-	4.B-
4c	4A
8d	8G
=137	=137
4.d	4.G
4.r	4.F
=138	=138
4e	4.A
8d	.
4e	4.A
8c	.
=139	=139
4.d	4.G
4.r	4.r
=140	=140
4.f	4.B-
4.g	4c
.	8d
=141	=141
4.g	4.c
4.r	4.d
=142	=142
4f	8f
.	8e
8g	8d
4f	4.c
8d	.
=143	=143
4.B-	4.f
4.c	4.e
=144	=144
4.d	4.d
4d	4d
8e	8c
=145	=145
4.f	4.B-
4.r	4.r
=146	=146
4.d	4.d
4d	4d
8c	8e
=147	=147
4.c	4.f
4.r	4.r
=148	=148
4.B-	4e-
.	8d
4B-	4d
8A	8c
=149	=149
4.G	4.d
4.r	4.r
=150	=150
4.B-	4.f
4c	8e
.	8d
8B-	8c
=151	=151
4A	4.e
8G	.
4.A	4.r
=152	=152
2.F	8f
.	8e
.	8d
.	4.c
=153	=153
4.G	4d
.	8e
4.A	4d
.	8c
=154	=154
4.B-	4.B-
4.r	4.r
=155	=155
4d	4d
8f	8c
4d	4d
8e	8c
=156	=156
4.f	4B-
.	8A
{24g	4.G
24f	.
24e	.
16d	.
16c	.
16B-	.
16A}	.
=157	=157
4.G	4.d
4.r	4.r
=158	=158
4.A	4.c
4.B-	4.B-
=159	=159
4.c	4.A
4.B-	4.B-
=160	=160
4A	4c
8G	8d
4A	4c
8B-	8B-
=161	=161
4.A	4.c
4.G	8d
.	8d
.	8e
=162	=162
[2.F	16f
.	16e
.	16d
.	16c
.	16B-
.	16A
.	4.G
=163	=163
4.F]	4.A
[4.G	[4.G
=164	=164
4.G]	4.G]
4.r	4.r
=165	=165
4.B-	4.f
4.c	4.e
=166	=166
4.d	4d
.	8e
4.r	4d
.	8c
=167	=167
4f	4.B-
8e	.
4d	4.r
8e	.
=168	=168
4.d	4.d
4.c	4.e
=169	=169
4.B-	4.f
4c	4.r
8d	.
=170	=170
4.d	4.d
4.r	4c
.	8B-
=171	=171
4f	4.B-
8e	.
4d	4.r
8e	.
=172	=172
4.d	4.d
4.c	4.e
=173	=173
4.B-	8f
.	8e
.	8d
4c	4.c
8d	.
=174	=174
4.G	4.d
4.r	4.r
=175	=175
4B-	4.d
8A	.
4B-	4.c
8c	.
=176	=176
4d	4.B-
8c	.
4.A	4.c
=177	=177
4.G	4d
.	8c
4A	4.B-
8G	.
=178	=178
4.F	4.c
4.r	4.r
=179	=179
4.G	4d
.	8e
4.F	4f
.	8e
=180	=180
4.G	4.d
4.F	4.B-
=181	=181
4.F	4.c
4.r	4d
.	8c
=182	=182
4B-	4.B-
8c	.
4d	4.r
8F	.
=183	=183
4.G	4.B-
4.A	4.A
=184	=184
4B-	4.G
8B-	.
4.A	4.F
=185	=185
4.G	4.G
4.r	4.r
=186	=186
4.B-	4f
.	8d
4.c	4.e
=187	=187
4.d	4.d
4.r	4.r
=188	=188
4f	4.B-
8d	.
4f	4.r
8g	.
=189	=189
4f	4.G
8e	.
4.c	4.r
=190	=190
4d	4.A
8c	.
4.B-	4.A
=191	=191
4.d	4.G
4.r	4.r
=192	=192
4f	4.B-
8e	.
4f	4.A
8g	.
=193	=193
4f	4.B-
8e	.
4.c	4.c
=194	=194
4.B-	4.d
4.A	4.c
=195	=195
2.G	4.d
.	4d
.	8e
=196	=196
[2.F	16f
.	16e
.	16d
.	16c
.	16B-
.	16A
.	4.G
=197	=197
4.F]	4.A
[4.G	[4.G
=198	=198
4.G]	4.G]
4.r	4.r
=199	=199
2.F	8f
.	8e
.	8d
.	4.c
=200	=200
4B-	8B-
.	8A
8B-	8G
4.c	4.F
=201	=201
4B-	2.B-
8A	.
4G	.
8A	.
=202	=202
4.F	4.c
4.r	4.r
=203	=203
4.G	4.d
4.A	4.c
=204	=204
4.B-	4.B-
4c	4.A
8d	.
=205	=205
4c	4A
8B-	8G
4.A	4.F
=206	=206
4.G	4.G
4.r	4.r
=207	=207
4.B-	4.f
4.c	4.e
=208	=208
4.B-	4.d
4B-	4d
8c	8e
=209	=209
4B-	4f
8A	8g
4A	8f
.	8e
8G	8d
=210	=210
4.F	4.c
4.r	4.r
=211	=211
4.d	4.d
4.f	4.c
=212	=212
2.f	4.B-
.	4B-
.	8A
=213	=213
4.g	4.G
4.c	4.c
=214	=214
4d	4d
8d	8d
4.c	4.e
=215	=215
4.B-	4.f
4.r	4.r
=216	=216
4.c	4.c
4.F	4.f
=217	=217
4.G	8e
.	8d
.	8c
4.A	4.e
=218	=218
2.B-	2.d
=219	=219
4.c	4.c
8B-	4.B-
8A	.
8G	.
=220	=220
4.A	4.A
4.r	4.r
=221	=221
4.B-	4.f
4.c	4.e
=222	=222
4.d	4.d
4.f	4.c
=223	=223
4d	4d
8B-	8e
4.c	4.c
=224	=224
4.B-	4.f
4A	8e
.	8d
8G	8c
=225	=225
4.G	4.d
4.r	4.r
=226	=226
4.F	4.c
4.G	4.B-
=227	=227
4.A	4.A
4.r	4.G
=228	=228
4B-	4.F
8c	.
4B-	4.r
8G	.
=229	=229
4.A	4A
.	8B-
4.F	4c
.	8B-
=230	=230
4.d	4.G
4.c	4.A
=231	=231
4.d	4.G
4.r	4.A
=232	=232
4B-	4.B-
8d	.
4c	4.r
8B-	.
=233	=233
4.A	4c
.	8d
4.G	4c
.	8B-
=234	=234
4.G	4.A
4A	4.B-
8G	.
=235	=235
4.F	4.c
4.r	4.r
=236	=236
4.B-	4.e-
4.A	4d
.	8c
=237	=237
4.B-	4.B-
4.r	4A
.	8G
=238	=238
4c	4.G
8d	.
4c	4.r
8B-	.
=239	=239
4.A	4B-
.	8c
4.G	4d
.	8c
=240	=240
4.G	4.B-
4.F	4.A
=241	=241
4.G	4.G
4.r	4.r
=242	=242
4B-	4.f
8c	.
4.d	4d
.	8en
=243	=243
4.c	4f
.	8e
4.d	4.d
=244	=244
4.r	4.e-
4B-	4d
8c	8c
=245	=245
4d	4B-
8d	8A
4e-	4G
8c	8B-
=246	=246
4.d	4.d
4.G	4.r
=247	=247
4.A	4.d
4.G	4.c
=248	=248
4.r	4.B-
4B-	4.r
8c	.
=249	=249
4.d	4G
.	8A
4B-	4B-
8c	8A
=250	=250
4.d	4G
.	8A
4B-	4.B-
8c	.
=251	=251
4d	4G
8d	8A
4e-	4B-
8c	8A
=252	=252
4.d	4G
.	8A
4B-	4B-
8A	8c
=253	=253
4.G	4.d
4.r	4.r
=254	=254
4A	4e
8B-	8d
4.c	4c
.	8d
=255	=255
4A	4e
8B-	8r
4.c	4c
.	8d
=256	=256
4A	4e
8B-	8r
4c	4g
8c	8f
=257	=257
4d	4e
8B-	8d
4.c	4c
.	8c
=258	=258
4.A	4.d
4.G	4.B-
=259	=259
4.F	4.c
4.r	4.r
=260	=260
4f	4.B-
8d	.
4f	4.A
8g	.
=261	=261
4f	4.B-
8e	.
4.c	4.c
=262	=262
4.d	4.G
4.c	4A
.	8G
=263	=263
4.B-	4.F
4.r	4.r
=264	=264
4B-	4.F
8c	.
4d	4.G
8e	.
=265	=265
4d	4.A
8c	.
4.B-	4.B-
=266	=266
4.A	4.c
4.r	4.r
=267	=267
4.B-	4.B-
4c	4A
8d	8G
=268	=268
4.c	4.F
8B-	4.G
8A	.
8G	.
=269	=269
4.F	4.F
4.r	4.r
=270	=270
[2.F	4.B-
.	4c
.	8d
=271	=271
2.F_	4.f
.	16f
.	16e
.	16d
.	16c
.	16B-
.	16A
=272	=272
2.F]	4.G
.	4.A
=273	=273
4.G	4.G
4.r	4.r
!! New Section
=274	=274
4.B-	4.d
4.r	4e-
.	8d
=275	=275
4.A	4.c
4.r	4.c
=276	=276
4.B-	4d
.	8e-
4A	4d
8G	8c
=277	=277
4.G	4.B-
4.r	4B-
.	8A
=278	=278
4.A	4.F
4.A	4.G
=279	=279
4.F	4.A
4.r	4.r
=280	=280
4.B-	4.F
4.r	4.G
=281	=281
4.A	4.A
4.r	4G
.	8F
=282	=282
4.B-	4.F
4A	4.r
8G	.
=283	=283
4.G	8c
.	8B-
.	8A
4.F	4.G
=284	=284
4.A	4.G
4.A	4.F
=285	=285
4.G	4.G
4.r	4.r
=286	=286
4.B-	4.B-
4B-	4B-
8c	8A
=287	=287
4.d	4.G
4.r	4.r
=288	=288
4.f	4.B-
4.e	4.A
=289	=289
4.f	4.B-
4.g	4.c
=290	=290
4f	4.d
8e	.
4.d	4.r
=291	=291
2.B-	2.f
=292	=292
4.c	4.e
4.r	4.r
=293	=293
4.d	4.d
4.d	4.c
=294	=294
2.d	4.B-
.	4.B-
=295	=295
4.c	4.c
8B-	4.d
8A	.
8G	.
=296	=296
4.G	4.d
4.r	4.r
=297	=297
4.B-	4.B-
4.A	4.c
=298	=298
4.B-	4.B-
4.c	4A
.	8G
=299	=299
4.B-	4.F
4.r	4.r
=300	=300
4A	4.A
8G	.
4.A	4A
.	8B-
=301	=301
4.F	4.c
4.r	4.r
=302	=302
4.B-	4.B-
4.d	4A
.	8G
=303	=303
4.c	4.F
4c	4.r
8d	.
=304	=304
4.F	4.c
4.G	4.B-
=305	=305
4.A	4.A
4.r	4.G
=306	=306
4.B-	4.F
4.r	4.r
=307	=307
4.A	4.c
4.r	4.r
=308	=308
4B-	4d
8A	8c
4.G	4.B-
=309	=309
2.F	2.A
=310	=310
4.G	4.G
4.r	4.r
=311	=311
4.B-	4.B-
4.A	4.c
=312	=312
4.B-	4.B-
4.c	4A
.	8G
=313	=313
4.A	4.A
4.r	4.r
=314	=314
4.B-	4.B-
4A	4.c
8G	.
=315	=315
4.G	4.d
4.r	4.r
=316	=316
4.B-	4.f
4.c	4.e-
=317	=317
4.d	4.d
4.e-	4.c
=318	=318
4d	4B-
8c	8A
4.d	4.G
=319	=319
4.B-	4.B-
4.c	4.c
=320	=320
4B-	4.d
8A	.
4.G	4d
.	8e
=321	=321
4.F	4.f
4.G	4e
.	8d
=322	=322
2.F	4.c
.	4c
.	8B-
=323	=323
4.c	4.A
4d	4.G
8e	.
=324	=324
4.f	4.F
8e	4.G
8d	.
8c	.
=325	=325
4.B-	4.F
4.r	4.r
=326	=326
4G	4.c
8F	.
4.G	4.B-
=327	=327
4.A	4.A
4.c	4.G
=328	=328
4.A	4.A
4.r	4.r
=329	=329
4A	4.c
8G	.
4.A	4d
.	8c
=330	=330
4.B-	4.B-
4.A	4.c
=331	=331
4.G	4d
.	8c
4.r	4B-
.	8A
=332	=332
2.F	4G
.	8G
.	4.A
=333	=333
4.G	4.G
4.r	4.r
=334	=334
4.d	4.A
4.c	4.c
=335	=335
2.f	4.B-
.	4B-
.	8A
=336	=336
4.g	4.G
8f	4A
8e	.
8d	8B-
=337	=337
4.c	4.c
4.r	4.r
=338	=338
4.d	4.d
4.e	4.c
=339	=339
2.f	2.B-
=340	=340
4e	4.A
8d	.
4.e	4.r
=341	=341
2.c	4.c
.	4c
.	8B-
=342	=342
4.d	4.B-
4.e	4.A
=343	=343
4.d	4.G
4.r	4.r
=344	=344
4.c	4.g
4.d	4.r
=345	=345
4.f	4.f
4.r	4.r
=346	=346
4e	4e
8d	8d
4.c	4e
.	8f
=347	=347
4.A	4.e
4.r	4.r
=348	=348
4.B-	4.f
4.r	4.r
=349	=349
4.c	4.e
4.B-	4.d
=350	=350
4.c	4.c
4.d	4.B-
=351	=351
4.c	4.c
4.B-	4.d
=352	=352
4.A	4.d
4.r	4.r
=353	=353
4.B-	4.d
4.r	4.r
=354	=354
4.c	4.c
4.d	4.B-
=355	=355
4.G	4.d
4.r	4.r
=356	=356
4.F	4.c
4.G	4.B-
=357	=357
2.A	4.A
.	4A
.	8G
=358	=358
4.c	4.F
4.A	4.A
=359	=359
4.B-	4.B-
4.A	4.c
=360	=360
4.G	4.d
4.r	4.r
=361	=361
4.d	4.G
4d	4G
8e	8A
=362	=362
4.c	2.c
4c	.
8B-	.
=363	=363
4.A	4d
.	8e
4.B-	4.d
=364	=364
4.c	4.c
4c	4c
8B-	8B-
=365	=365
4A	4c
8G	8B-
4.F	4.A
=366	=366
4.G	4.G
4.r	4.r
=367	=367
4f	4c
8e	8r
4d	4d
8r	8e
=368	=368
4c	4g
8A	8r
4B-	4f
8r	8d
=369	=369
4A	4e
8G	8g
4A	8f
.	8e
8B-	8d
=370	=370
4A	4c
8G	8B-
4F	4c
8r	8r
=371	=371
4f	4F
8e	8r
4d	4G
8r	8A
=372	=372
4c	4c
8A	8r
4B-	4B-
8r	8c
=373	=373
4A	4d
8G	8d
4A	8c
.	8B-
8B-	8A
=374	=374
4A	4G
8G	8G
4A	4F
8r	8r
=375	=375
4f	4B-
8e	8c
4d	4d
8r	8B-
=376	=376
4c	4c
8A	8r
4B-	4B-
8r	8c
=377	=377
4A	4d
8G	8e
4A	8f
.	8e
8B-	8d
=378	=378
4A	4c
8G	8B-
4.F	4.A
=379	=379
4.G	4.G
4.r	4.r
=380	=380
4F	4c
8G	8B-
4A	4A
8r	8r
=381	=381
4B-	4G
8c	8r
4B-	4F
8r	8G
=382	=382
4A	4A
8B-	8r
4A	4F
8r	8r
=383	=383
4G	4G
8F	8A
4G	4G
8r	8A
=384	=384
4F	4c
8G	8B-
8A	4A
8A	.
8B-	8G
=385	=385
4G	4.c
8A	.
4G	4d
8r	8r
=386	=386
4A	4e
8c	8r
4A	4e
8r	8d
=387	=387
4c	4f
8d	8e
4d	4d
8r	8f
=388	=388
4e	4e
8c	8e
4d	4d
8r	8c
=389	=389
4c	4f
8f	8r
4e	4e
8r	8d
=390	=390
4f	4c
8g	8e
4c	8g
.	8f
8r	8e
=391	=391
4d	4d
8d	8r
4c	8f
.	8d
8B-	8e
=392	=392
4A	4d
8A	8c
4G	4B-
8r	8B-
=393	=393
4A	4A
8F	8A
4G	4G
8r	8r
=394	=394
4A	4e
8c	8r
4c	4f
8r	8r
=395	=395
4c	8e
.	8d
8d	8e
4d	4d
8r	8r
=396	=396
4c	4e
8e	8c
4d	4d
8r	8r
=397	=397
4c	8f
.	8e
8f	8d
4e	4c
8e	8c
=398	=398
4d	4d
8d	8d
4.c	4e
.	8r
=399	=399
4.d	4g
.	8a
4.e	4g
.	8f
=400	=400
4.c	4.e
4d	4.f
8r	.
=401	=401
4.e	4.e
4.g	4.e
=402	=402
4.f	4.d
4.g	4.r
=403	=403
4.c	8f
.	8e
.	8d
4.d	4c
.	8d
=404	=404
4.d	8f
.	8e
.	8f
4c	4g
8r	8r
=405	=405
4B-	4f
8B-	8f
4A	4e
8r	8d
=406	=406
4B-	4e
8A	8f
4G	4g
8r	8r
=407	=407
4B-	4f
8B-	8f
4A	4e
8B-	8d
=408	=408
8A	8e
8G	8d
8A	8c
4.G	8d
.	8d
.	8c
=409	=409
4A	8A
.	8c
8F	8B-
4A	8B-
.	8A
8B-	8G
=410	=410
8c	4F
8B-	.
8A	8r
4G	4.d
8r	.
=411	=411
4A	8c
.	8A
8G	8B-
4F	8c
.	8c
8r	8d
=412	=412
[2.F	16f
.	16e
.	16d
.	16c
.	16B-
.	16A
.	4G
.	8G
=413	=413
4.F]	4.A
4G;	4G;
8r	8r
==	==
*-	*-
!!!ENC: David Huron
!!!YEC: Copyright 1987, David Huron
!!!EEV: 1.0
